X:1
T: Miss Nancy Arnott
C:
R:Strathspey
Q: 128
K:D
M:4/4
L:1/16
|:A2|D4 F3E D3A F3D|A,3D F3A ((3d2c2d2) ((3A2F2D2) |E4 G3F ^D3B A3F|E3^G e3d ((3c2B2A2) ((3G2F2E2) |
D4 F3E D3A F3D|A,3D F3A ((3d2c2d2) ((3A2F2D2) |G4 e3G ((3F2G2A2) ((3F2E2D2) |A3F EFGA FD3 D2A2|
d3g fedc dA3 A3G|((3F2G2A2) d3A FD3 D3^d|e4 gfe^d eB3 B3A|((3^G2A2B2) ((3B2c2d2) cA3 A3c|
d3g fedc dA3 A3G|((3F2G2A2) d3A FD3 D3C|B,3D G3B ABcd cBAG|F3A EFGA FD3 D2:|
